; G-Code generated by Simplify3D(R) Version 4.0.1
; Oct 7, 2018 at 9:53:54 AM
; Settings Summary
;   processName,Process1
;   applyToModels,LoganStud32
;   profileName,Kossel Mini
;   profileVersion,2018-08-13 14:47:42
;   baseProfile,
;   printMaterial,PETG
;   printQuality,Medium
;   printExtruders,
;   extruderName,Primary Extruder
;   extruderToolheadNumber,0
;   extruderDiameter,0.4
;   extruderAutoWidth,1
;   extruderWidth,0.48
;   extrusionMultiplier,0.95
;   extruderUseRetract,1
;   extruderRetractionDistance,5
;   extruderExtraRestartDistance,0
;   extruderRetractionZLift,0.1
;   extruderRetractionSpeed,3600
;   extruderUseCoasting,0
;   extruderCoastingDistance,1
;   extruderUseWipe,0
;   extruderWipeDistance,5
;   primaryExtruder,0
;   layerHeight,0.2
;   topSolidLayers,3
;   bottomSolidLayers,3
;   perimeterOutlines,3
;   printPerimetersInsideOut,1
;   startPointOption,2
;   startPointOriginX,0
;   startPointOriginY,0
;   sequentialIslands,0
;   spiralVaseMode,0
;   firstLayerHeightPercentage,90
;   firstLayerWidthPercentage,100
;   firstLayerUnderspeed,0.5
;   useRaft,0
;   raftExtruder,0
;   raftTopLayers,3
;   raftBaseLayers,2
;   raftOffset,3
;   raftSeparationDistance,0.14
;   raftTopInfill,100
;   aboveRaftSpeedMultiplier,0.3
;   useSkirt,1
;   skirtExtruder,0
;   skirtLayers,1
;   skirtOutlines,2
;   skirtOffset,4
;   usePrimePillar,0
;   primePillarExtruder,999
;   primePillarWidth,12
;   primePillarLocation,7
;   primePillarSpeedMultiplier,1
;   useOozeShield,0
;   oozeShieldExtruder,999
;   oozeShieldOffset,2
;   oozeShieldOutlines,1
;   oozeShieldSidewallShape,1
;   oozeShieldSidewallAngle,30
;   oozeShieldSpeedMultiplier,1
;   infillExtruder,0
;   internalInfillPattern,Rectilinear
;   externalInfillPattern,Rectilinear
;   infillPercentage,50
;   outlineOverlapPercentage,15
;   infillExtrusionWidthPercentage,150
;   minInfillLength,5
;   infillLayerInterval,1
;   internalInfillAngles,45,-45
;   overlapInternalInfillAngles,0
;   externalInfillAngles,45,-45
;   generateSupport,0
;   supportExtruder,0
;   supportInfillPercentage,30
;   supportExtraInflation,0
;   supportBaseLayers,0
;   denseSupportExtruder,0
;   denseSupportLayers,0
;   denseSupportInfillPercentage,70
;   supportLayerInterval,1
;   supportHorizontalPartOffset,0.3
;   supportUpperSeparationLayers,1
;   supportLowerSeparationLayers,1
;   supportType,0
;   supportGridSpacing,4
;   maxOverhangAngle,45
;   supportAngles,0
;   temperatureName,Primary Extruder,Heated Bed
;   temperatureNumber,0,1
;   temperatureSetpointCount,1,2
;   temperatureSetpointLayers,1,1,2
;   temperatureSetpointTemperatures,250,80,75
;   temperatureStabilizeAtStartup,1,1
;   temperatureHeatedBed,0,1
;   temperatureRelayBetweenLayers,0,0
;   temperatureRelayBetweenLoops,0,0
;   fanLayers,1,2
;   fanSpeeds,0,100
;   blipFanToFullPower,1
;   adjustSpeedForCooling,1
;   minSpeedLayerTime,15
;   minCoolingSpeedSlowdown,20
;   increaseFanForCooling,0
;   minFanLayerTime,60
;   maxCoolingFanSpeed,100
;   increaseFanForBridging,0
;   bridgingFanSpeed,100
;   use5D,1
;   relativeEdistances,0
;   allowEaxisZeroing,1
;   independentExtruderAxes,0
;   includeM10123,0
;   stickySupport,1
;   applyToolheadOffsets,0
;   gcodeXoffset,0
;   gcodeYoffset,0
;   gcodeZoffset,0
;   overrideMachineDefinition,1
;   machineTypeOverride,1
;   strokeXoverride,200
;   strokeYoverride,200
;   strokeZoverride,194
;   originOffsetXoverride,100
;   originOffsetYoverride,100
;   originOffsetZoverride,0
;   homeXdirOverride,0
;   homeYdirOverride,0
;   homeZdirOverride,1
;   flipXoverride,1
;   flipYoverride,-1
;   flipZoverride,1
;   toolheadOffsets,0,0|0,0|0,0|0,0|0,0|0,0
;   overrideFirmwareConfiguration,1
;   firmwareTypeOverride,RepRap (Marlin/Repetier/Sprinter)
;   GPXconfigOverride,r2
;   baudRateOverride,250000
;   overridePrinterModels,1
;   printerModelsOverride
;   startingGcode,G28 ; home all axes
;   layerChangeGcode,
;   retractionGcode,
;   toolChangeGcode,
;   endingGcode,M104 S0 ; turn off extruder,M140 S0 ; turn off bed,G28 ; home axes,M84 ; disable motors
;   exportFileFormat,gcode
;   celebration,0
;   celebrationSong,Random Song
;   postProcessing,
;   defaultSpeed,3000
;   outlineUnderspeed,0.5
;   solidInfillUnderspeed,0.8
;   supportUnderspeed,0.8
;   rapidXYspeed,9000
;   rapidZspeed,1200
;   minBridgingArea,50
;   bridgingExtraInflation,0
;   bridgingExtrusionMultiplier,0.95
;   bridgingSpeedMultiplier,0.7
;   useFixedBridgingAngle,0
;   fixedBridgingAngle,0
;   applyBridgingToPerimeters,0
;   filamentDiameters,1.71|1.75|1.75|1.75|1.75|1.75
;   filamentPricesPerKg,46|46|46|46|46|46
;   filamentDensities,1.25|1.25|1.25|1.25|1.25|1.25
;   useMinPrintHeight,0
;   minPrintHeight,0
;   useMaxPrintHeight,0
;   maxPrintHeight,0
;   useDiaphragm,0
;   diaphragmLayerInterval,20
;   robustSlicing,1
;   mergeAllIntoSolid,0
;   onlyRetractWhenCrossingOutline,1
;   retractBetweenLayers,1
;   useRetractionMinTravel,0
;   retractionMinTravel,3
;   retractWhileWiping,0
;   onlyWipeOutlines,1
;   avoidCrossingOutline,0
;   maxMovementDetourFactor,3
;   toolChangeRetractionDistance,12
;   toolChangeExtraRestartDistance,-0.5
;   toolChangeRetractionSpeed,600
;   externalThinWallType,0
;   internalThinWallType,2
;   thinWallAllowedOverlapPercentage,10
;   singleExtrusionMinLength,1
;   singleExtrusionMinPrintingWidthPercentage,50
;   singleExtrusionMaxPrintingWidthPercentage,200
;   singleExtrusionEndpointExtension,0.2
;   horizontalSizeCompensation,0
G90
M82
M106 S255
G4 P500
M106 S0
M140 S80
M190 S80
M104 S250 T0
M109 S250 T0
G28 ; home all axes
G92 E0
G1 E-5.0000 F3600
G1 Z0.280 F1200
; process Process1
; layer 1, Z = 0.180
T0
; tool H0.200 W0.480
; skirt
G1 X3.064 Y-31.105 F9000
G1 Z0.180 F1200
G1 E0.0000 F1080
G92 E0
G1 X3.910 Y-31.474 E0.0366 F1500
G1 X4.129 Y-31.497 E0.0454
G1 X8.239 Y-30.680 E0.2118
G1 X8.433 Y-30.574 E0.2206
G1 X9.073 Y-29.910 E0.2572
G1 X9.975 Y-30.106 E0.2939
G1 X10.194 Y-30.087 E0.3026
G1 X14.066 Y-28.483 E0.4691
G1 X14.235 Y-28.341 E0.4778
G1 X14.734 Y-27.565 E0.5144
G1 X15.656 Y-27.582 E0.5511
G1 X15.868 Y-27.520 E0.5598
G1 X19.353 Y-25.191 E0.7263
G1 X19.491 Y-25.020 E0.7350
G1 X19.828 Y-24.161 E0.7717
G1 X20.737 Y-23.997 E0.8083
G1 X20.932 Y-23.895 E0.8171
G1 X23.895 Y-20.932 E0.9835
G1 X23.997 Y-20.737 E0.9922
G1 X24.161 Y-19.828 E1.0289
G1 X25.020 Y-19.491 E1.0655
G1 X25.191 Y-19.353 E1.0743
G1 X27.520 Y-15.868 E1.2407
G1 X27.582 Y-15.656 E1.2495
G1 X27.565 Y-14.734 E1.2861
G1 X28.341 Y-14.235 E1.3228
G1 X28.483 Y-14.066 E1.3315
G1 X30.087 Y-10.193 E1.4980
G1 X30.107 Y-9.974 E1.5067
G1 X29.910 Y-9.073 E1.5433
G1 X30.574 Y-8.433 E1.5800
G1 X30.680 Y-8.239 E1.5887
G1 X31.498 Y-4.128 E1.7552
G1 X31.474 Y-3.908 E1.7640
G1 X31.105 Y-3.063 E1.8006
G1 X31.632 Y-2.306 E1.8372
G1 X31.698 Y-2.096 E1.8460
G1 X31.698 Y2.096 E2.0124
G1 X31.632 Y2.307 E2.0212
G1 X31.105 Y3.064 E2.0578
G1 X31.474 Y3.910 E2.0944
G1 X31.497 Y4.129 E2.1032
G1 X30.680 Y8.240 E2.2697
G1 X30.574 Y8.434 E2.2784
G1 X29.910 Y9.073 E2.3150
G1 X30.106 Y9.975 E2.3517
G1 X30.087 Y10.194 E2.3604
G1 X28.482 Y14.067 E2.5269
G1 X28.341 Y14.236 E2.5356
G1 X27.565 Y14.734 E2.5722
G1 X27.582 Y15.656 E2.6089
G1 X27.520 Y15.868 E2.6176
G1 X25.191 Y19.353 E2.7841
G1 X25.019 Y19.492 E2.7929
G1 X24.161 Y19.829 E2.8295
G1 X23.997 Y20.737 E2.8661
G1 X23.895 Y20.932 E2.8749
G1 X20.931 Y23.896 E3.0413
G1 X20.736 Y23.998 E3.0501
G1 X19.828 Y24.161 E3.0867
G1 X19.491 Y25.020 E3.1233
G1 X19.353 Y25.191 E3.1321
G1 X15.867 Y27.520 E3.2986
G1 X15.656 Y27.582 E3.3073
G1 X14.734 Y27.565 E3.3439
G1 X14.235 Y28.341 E3.3806
G1 X14.066 Y28.483 E3.3893
G1 X10.194 Y30.087 E3.5557
G1 X9.975 Y30.106 E3.5645
G1 X9.073 Y29.910 E3.6011
G1 X8.433 Y30.574 E3.6378
G1 X8.239 Y30.680 E3.6465
G1 X4.129 Y31.497 E3.8130
G1 X3.910 Y31.474 E3.8217
G1 X3.064 Y31.105 E3.8584
G1 X2.306 Y31.632 E3.8950
G1 X2.096 Y31.698 E3.9038
G1 X-2.096 Y31.698 E4.0702
G1 X-2.306 Y31.632 E4.0789
G1 X-3.064 Y31.105 E4.1156
G1 X-3.910 Y31.474 E4.1522
G1 X-4.129 Y31.497 E4.1610
G1 X-8.239 Y30.680 E4.3274
G1 X-8.433 Y30.574 E4.3362
G1 X-9.073 Y29.910 E4.3728
G1 X-9.975 Y30.106 E4.4095
G1 X-10.194 Y30.087 E4.4182
G1 X-14.066 Y28.483 E4.5846
G1 X-14.235 Y28.341 E4.5934
G1 X-14.734 Y27.565 E4.6300
G1 X-15.656 Y27.582 E4.6667
G1 X-15.868 Y27.520 E4.6754
G1 X-19.353 Y25.191 E4.8419
G1 X-19.491 Y25.020 E4.8506
G1 X-19.828 Y24.161 E4.8873
G1 X-20.737 Y23.997 E4.9239
G1 X-20.932 Y23.895 E4.9326
G1 X-23.895 Y20.932 E5.0991
G1 X-23.997 Y20.737 E5.1078
G1 X-24.161 Y19.828 E5.1445
G1 X-25.020 Y19.491 E5.1811
G1 X-25.191 Y19.353 E5.1899
G1 X-27.520 Y15.868 E5.3563
G1 X-27.582 Y15.656 E5.3651
G1 X-27.565 Y14.734 E5.4017
G1 X-28.341 Y14.235 E5.4383
G1 X-28.483 Y14.066 E5.4471
G1 X-30.087 Y10.193 E5.6136
G1 X-30.107 Y9.974 E5.6223
G1 X-29.910 Y9.073 E5.6589
G1 X-30.574 Y8.433 E5.6956
G1 X-30.680 Y8.239 E5.7043
G1 X-31.498 Y4.128 E5.8708
G1 X-31.474 Y3.908 E5.8795
G1 X-31.105 Y3.063 E5.9162
G1 X-31.632 Y2.306 E5.9528
G1 X-31.698 Y2.096 E5.9615
G1 X-31.698 Y-2.096 E6.1280
G1 X-31.632 Y-2.307 E6.1368
G1 X-31.105 Y-3.064 E6.1734
G1 X-31.474 Y-3.910 E6.2100
G1 X-31.497 Y-4.129 E6.2188
G1 X-30.680 Y-8.240 E6.3852
G1 X-30.574 Y-8.434 E6.3940
G1 X-29.910 Y-9.073 E6.4306
G1 X-30.106 Y-9.975 E6.4672
G1 X-30.087 Y-10.194 E6.4760
G1 X-28.482 Y-14.067 E6.6425
G1 X-28.341 Y-14.236 E6.6512
G1 X-27.565 Y-14.734 E6.6878
G1 X-27.582 Y-15.656 E6.7245
G1 X-27.520 Y-15.868 E6.7332
G1 X-25.191 Y-19.353 E6.8997
G1 X-25.019 Y-19.492 E6.9084
G1 X-24.161 Y-19.829 E6.9451
G1 X-23.997 Y-20.737 E6.9817
G1 X-23.895 Y-20.932 E6.9904
G1 X-20.931 Y-23.896 E7.1569
G1 X-20.736 Y-23.998 E7.1657
G1 X-19.828 Y-24.161 E7.2023
G1 X-19.491 Y-25.020 E7.2389
G1 X-19.353 Y-25.191 E7.2477
G1 X-15.867 Y-27.520 E7.4141
G1 X-15.656 Y-27.582 E7.4229
G1 X-14.734 Y-27.565 E7.4595
G1 X-14.235 Y-28.341 E7.4961
G1 X-14.066 Y-28.483 E7.5049
G1 X-10.194 Y-30.087 E7.6713
G1 X-9.975 Y-30.106 E7.6801
G1 X-9.073 Y-29.910 E7.7167
G1 X-8.433 Y-30.574 E7.7534
G1 X-8.239 Y-30.680 E7.7621
G1 X-4.129 Y-31.497 E7.9286
G1 X-3.910 Y-31.474 E7.9373
G1 X-3.064 Y-31.105 E7.9739
G1 X-2.306 Y-31.632 E8.0106
G1 X-2.096 Y-31.698 E8.0193
G1 X2.096 Y-31.698 E8.1858
G1 X2.306 Y-31.632 E8.1945
G1 X3.064 Y-31.105 E8.2312
G1 X3.010 Y-30.558 F9000
G92 E0
G1 X4.034 Y-31.004 E0.0444 F1500
G1 X4.107 Y-31.012 E0.0473
G1 X8.074 Y-30.223 E0.2079
G1 X8.138 Y-30.188 E0.2108
G1 X8.913 Y-29.384 E0.2552
G1 X10.005 Y-29.622 E0.2995
G1 X10.078 Y-29.615 E0.3025
G1 X13.815 Y-28.067 E0.4631
G1 X13.871 Y-28.020 E0.4660
G1 X14.475 Y-27.080 E0.5103
G1 X15.592 Y-27.101 E0.5547
G1 X15.662 Y-27.080 E0.5576
G1 X19.025 Y-24.833 E0.7182
G1 X19.071 Y-24.776 E0.7211
G1 X19.480 Y-23.736 E0.7655
G1 X20.579 Y-23.538 E0.8099
G1 X20.644 Y-23.504 E0.8128
G1 X23.504 Y-20.644 E0.9734
G1 X23.538 Y-20.579 E0.9763
G1 X23.736 Y-19.480 E1.0207
G1 X24.776 Y-19.071 E1.0651
G1 X24.833 Y-19.025 E1.0680
G1 X27.080 Y-15.662 E1.2286
G1 X27.101 Y-15.592 E1.2315
G1 X27.080 Y-14.475 E1.2759
G1 X28.020 Y-13.871 E1.3202
G1 X28.067 Y-13.815 E1.3231
G1 X29.615 Y-10.077 E1.4838
G1 X29.622 Y-10.004 E1.4867
G1 X29.384 Y-8.913 E1.5310
G1 X30.188 Y-8.138 E1.5754
G1 X30.223 Y-8.074 E1.5783
G1 X31.012 Y-4.106 E1.7390
G1 X31.005 Y-4.033 E1.7419
G1 X30.558 Y-3.010 E1.7862
G1 X31.196 Y-2.092 E1.8306
G1 X31.218 Y-2.022 E1.8335
G1 X31.218 Y2.023 E1.9941
G1 X31.196 Y2.093 E1.9971
G1 X30.558 Y3.010 E2.0414
G1 X31.004 Y4.034 E2.0858
G1 X31.012 Y4.107 E2.0887
G1 X30.223 Y8.074 E2.2493
G1 X30.188 Y8.139 E2.2522
G1 X29.384 Y8.914 E2.2966
G1 X29.622 Y10.005 E2.3409
G1 X29.615 Y10.078 E2.3439
G1 X28.067 Y13.815 E2.5045
G1 X28.020 Y13.872 E2.5074
G1 X27.080 Y14.475 E2.5517
G1 X27.101 Y15.592 E2.5961
G1 X27.080 Y15.662 E2.5990
G1 X24.833 Y19.026 E2.7597
G1 X24.775 Y19.072 E2.7626
G1 X23.736 Y19.480 E2.8069
G1 X23.538 Y20.579 E2.8513
G1 X23.504 Y20.644 E2.8542
G1 X20.644 Y23.505 E3.0148
G1 X20.579 Y23.539 E3.0178
G1 X19.480 Y23.736 E3.0621
G1 X19.071 Y24.776 E3.1065
G1 X19.025 Y24.833 E3.1094
G1 X15.662 Y27.080 E3.2700
G1 X15.591 Y27.101 E3.2729
G1 X14.475 Y27.080 E3.3173
G1 X13.871 Y28.020 E3.3616
G1 X13.815 Y28.067 E3.3646
G1 X10.078 Y29.615 E3.5252
G1 X10.005 Y29.622 E3.5281
G1 X8.913 Y29.384 E3.5724
G1 X8.138 Y30.188 E3.6168
G1 X8.074 Y30.223 E3.6197
G1 X4.107 Y31.012 E3.7803
G1 X4.034 Y31.004 E3.7832
G1 X3.010 Y30.558 E3.8276
G1 X2.092 Y31.196 E3.8720
G1 X2.022 Y31.218 E3.8749
G1 X-2.022 Y31.218 E4.0355
G1 X-2.092 Y31.196 E4.0384
G1 X-3.010 Y30.558 E4.0828
G1 X-4.034 Y31.004 E4.1272
G1 X-4.107 Y31.012 E4.1301
G1 X-8.074 Y30.223 E4.2907
G1 X-8.138 Y30.188 E4.2936
G1 X-8.913 Y29.384 E4.3380
G1 X-10.005 Y29.622 E4.3823
G1 X-10.078 Y29.615 E4.3852
G1 X-13.815 Y28.067 E4.5458
G1 X-13.871 Y28.020 E4.5488
G1 X-14.475 Y27.080 E4.5931
G1 X-15.592 Y27.101 E4.6375
G1 X-15.662 Y27.080 E4.6404
G1 X-19.025 Y24.833 E4.8010
G1 X-19.071 Y24.776 E4.8039
G1 X-19.480 Y23.736 E4.8483
G1 X-20.579 Y23.538 E4.8927
G1 X-20.644 Y23.504 E4.8956
G1 X-23.504 Y20.644 E5.0562
G1 X-23.538 Y20.579 E5.0591
G1 X-23.736 Y19.480 E5.1035
G1 X-24.776 Y19.071 E5.1478
G1 X-24.833 Y19.025 E5.1508
G1 X-27.080 Y15.662 E5.3114
G1 X-27.101 Y15.592 E5.3143
G1 X-27.080 Y14.475 E5.3586
G1 X-28.020 Y13.871 E5.4030
G1 X-28.067 Y13.815 E5.4059
G1 X-29.615 Y10.077 E5.5666
G1 X-29.622 Y10.004 E5.5695
G1 X-29.384 Y8.913 E5.6138
G1 X-30.188 Y8.138 E5.6582
G1 X-30.223 Y8.074 E5.6611
G1 X-31.012 Y4.106 E5.8217
G1 X-31.005 Y4.033 E5.8247
G1 X-30.558 Y3.010 E5.8690
G1 X-31.196 Y2.092 E5.9134
G1 X-31.218 Y2.022 E5.9163
G1 X-31.218 Y-2.023 E6.0769
G1 X-31.196 Y-2.093 E6.0798
G1 X-30.558 Y-3.010 E6.1242
G1 X-31.004 Y-4.034 E6.1685
G1 X-31.012 Y-4.107 E6.1715
G1 X-30.223 Y-8.074 E6.3321
G1 X-30.188 Y-8.139 E6.3350
G1 X-29.384 Y-8.914 E6.3794
G1 X-29.622 Y-10.005 E6.4237
G1 X-29.615 Y-10.078 E6.4266
G1 X-28.067 Y-13.815 E6.5873
G1 X-28.020 Y-13.872 E6.5902
G1 X-27.080 Y-14.475 E6.6345
G1 X-27.101 Y-15.592 E6.6789
G1 X-27.080 Y-15.662 E6.6818
G1 X-24.833 Y-19.026 E6.8424
G1 X-24.775 Y-19.072 E6.8454
G1 X-23.736 Y-19.480 E6.8897
G1 X-23.538 Y-20.579 E6.9341
G1 X-23.504 Y-20.644 E6.9370
G1 X-20.644 Y-23.505 E7.0976
G1 X-20.579 Y-23.539 E7.1005
G1 X-19.480 Y-23.736 E7.1449
G1 X-19.071 Y-24.776 E7.1892
G1 X-19.025 Y-24.833 E7.1922
G1 X-15.662 Y-27.080 E7.3528
G1 X-15.591 Y-27.101 E7.3557
G1 X-14.475 Y-27.080 E7.4001
G1 X-13.871 Y-28.020 E7.4444
G1 X-13.815 Y-28.067 E7.4473
G1 X-10.078 Y-29.615 E7.6079
G1 X-10.005 Y-29.622 E7.6109
G1 X-8.913 Y-29.384 E7.6552
G1 X-8.138 Y-30.188 E7.6996
G1 X-8.074 Y-30.223 E7.7025
G1 X-4.107 Y-31.012 E7.8631
G1 X-4.034 Y-31.004 E7.8660
G1 X-3.010 Y-30.558 E7.9104
G1 X-2.092 Y-31.196 E7.9548
G1 X-2.022 Y-31.218 E7.9577
G1 X2.022 Y-31.218 E8.1183
G1 X2.092 Y-31.196 E8.1212
G1 X3.010 Y-30.558 E8.1656
G92 E0
G1 E-5.0000 F3600
G1 Z0.280 F1200
; inner perimeter
G1 X4.373 Y-22.882 F9000
G1 Z0.180 F1200
G1 E0.0000 F3600
G92 E0
G1 X4.717 Y-22.813 E0.0139 F1125
G1 X4.719 Y-22.601 E0.0224
G1 X5.115 Y-21.937 E0.0531
G1 X5.619 Y-21.653 E0.0761
G1 X7.361 Y-21.125 E0.1483
G1 X7.941 Y-21.083 E0.1714
G1 X8.634 Y-21.415 E0.2019
G1 X8.753 Y-21.589 E0.2103
G1 X9.077 Y-21.455 E0.2242
G1 X9.037 Y-21.246 E0.2327
G1 X9.296 Y-20.518 E0.2634
G1 X9.736 Y-20.141 E0.2863
G1 X11.340 Y-19.283 E0.3586
G1 X11.903 Y-19.128 E0.3818
G1 X12.648 Y-19.322 E0.4124
G1 X12.796 Y-19.467 E0.4206
G1 X13.088 Y-19.272 E0.4345
G1 X13.009 Y-19.077 E0.4429
G1 X13.119 Y-18.312 E0.4735
G1 X13.478 Y-17.854 E0.4966
G1 X14.884 Y-16.700 E0.5689
G1 X15.406 Y-16.438 E0.5921
G1 X16.175 Y-16.483 E0.6227
G1 X16.348 Y-16.596 E0.6309
G1 X16.596 Y-16.348 E0.6448
G1 X16.481 Y-16.172 E0.6532
G1 X16.439 Y-15.401 E0.6838
G1 X16.702 Y-14.882 E0.7069
G1 X17.856 Y-13.476 E0.7792
G1 X18.317 Y-13.117 E0.8024
G1 X19.079 Y-13.011 E0.8330
G1 X19.272 Y-13.088 E0.8412
G1 X19.467 Y-12.796 E0.8551
G1 X19.319 Y-12.646 E0.8635
G1 X19.128 Y-11.898 E0.8941
G1 X19.284 Y-11.338 E0.9172
G1 X20.142 Y-9.734 E0.9895
G1 X20.524 Y-9.291 E1.0127
G1 X21.251 Y-9.038 E1.0432
G1 X21.455 Y-9.077 E1.0515
G1 X21.589 Y-8.753 E1.0654
G1 X21.415 Y-8.634 E1.0738
G1 X21.081 Y-7.938 E1.1044
G1 X21.126 Y-7.357 E1.1275
G1 X21.654 Y-5.617 E1.1997
