; G-Code generated by Simplify3D(R) Version 4.0.1
; Oct 5, 2018 at 9:51:44 AM
; Settings Summary
;   processName,Process1
;   applyToModels,Logan_37t
;   profileName,Kossel Mini
;   profileVersion,2018-08-13 14:47:42
;   baseProfile,
;   printMaterial,PETG
;   printQuality,Medium
;   printExtruders,
;   extruderName,Primary Extruder
;   extruderToolheadNumber,0
;   extruderDiameter,0.4
;   extruderAutoWidth,1
;   extruderWidth,0.48
;   extrusionMultiplier,0.95
;   extruderUseRetract,1
;   extruderRetractionDistance,5
;   extruderExtraRestartDistance,0
;   extruderRetractionZLift,0.1
;   extruderRetractionSpeed,3600
;   extruderUseCoasting,0
;   extruderCoastingDistance,1
;   extruderUseWipe,0
;   extruderWipeDistance,5
;   primaryExtruder,0
;   layerHeight,0.2
;   topSolidLayers,3
;   bottomSolidLayers,3
;   perimeterOutlines,3
;   printPerimetersInsideOut,1
;   startPointOption,2
;   startPointOriginX,0
;   startPointOriginY,0
;   sequentialIslands,0
;   spiralVaseMode,0
;   firstLayerHeightPercentage,90
;   firstLayerWidthPercentage,100
;   firstLayerUnderspeed,0.5
;   useRaft,0
;   raftExtruder,0
;   raftTopLayers,3
;   raftBaseLayers,2
;   raftOffset,3
;   raftSeparationDistance,0.14
;   raftTopInfill,100
;   aboveRaftSpeedMultiplier,0.3
;   useSkirt,1
;   skirtExtruder,0
;   skirtLayers,1
;   skirtOutlines,2
;   skirtOffset,4
;   usePrimePillar,0
;   primePillarExtruder,999
;   primePillarWidth,12
;   primePillarLocation,7
;   primePillarSpeedMultiplier,1
;   useOozeShield,0
;   oozeShieldExtruder,999
;   oozeShieldOffset,2
;   oozeShieldOutlines,1
;   oozeShieldSidewallShape,1
;   oozeShieldSidewallAngle,30
;   oozeShieldSpeedMultiplier,1
;   infillExtruder,0
;   internalInfillPattern,Rectilinear
;   externalInfillPattern,Rectilinear
;   infillPercentage,50
;   outlineOverlapPercentage,15
;   infillExtrusionWidthPercentage,150
;   minInfillLength,5
;   infillLayerInterval,1
;   internalInfillAngles,45,-45
;   overlapInternalInfillAngles,0
;   externalInfillAngles,45,-45
;   generateSupport,0
;   supportExtruder,0
;   supportInfillPercentage,30
;   supportExtraInflation,0
;   supportBaseLayers,0
;   denseSupportExtruder,0
;   denseSupportLayers,0
;   denseSupportInfillPercentage,70
;   supportLayerInterval,1
;   supportHorizontalPartOffset,0.3
;   supportUpperSeparationLayers,1
;   supportLowerSeparationLayers,1
;   supportType,0
;   supportGridSpacing,4
;   maxOverhangAngle,45
;   supportAngles,0
;   temperatureName,Primary Extruder,Heated Bed
;   temperatureNumber,0,1
;   temperatureSetpointCount,1,2
;   temperatureSetpointLayers,1,1,2
;   temperatureSetpointTemperatures,250,80,75
;   temperatureStabilizeAtStartup,1,1
;   temperatureHeatedBed,0,1
;   temperatureRelayBetweenLayers,0,0
;   temperatureRelayBetweenLoops,0,0
;   fanLayers,1,2
;   fanSpeeds,0,100
;   blipFanToFullPower,1
;   adjustSpeedForCooling,1
;   minSpeedLayerTime,15
;   minCoolingSpeedSlowdown,20
;   increaseFanForCooling,0
;   minFanLayerTime,60
;   maxCoolingFanSpeed,100
;   increaseFanForBridging,0
;   bridgingFanSpeed,100
;   use5D,1
;   relativeEdistances,0
;   allowEaxisZeroing,1
;   independentExtruderAxes,0
;   includeM10123,0
;   stickySupport,1
;   applyToolheadOffsets,0
;   gcodeXoffset,0
;   gcodeYoffset,0
;   gcodeZoffset,0
;   overrideMachineDefinition,1
;   machineTypeOverride,1
;   strokeXoverride,200
;   strokeYoverride,200
;   strokeZoverride,194
;   originOffsetXoverride,100
;   originOffsetYoverride,100
;   originOffsetZoverride,0
;   homeXdirOverride,0
;   homeYdirOverride,0
;   homeZdirOverride,1
;   flipXoverride,1
;   flipYoverride,-1
;   flipZoverride,1
;   toolheadOffsets,0,0|0,0|0,0|0,0|0,0|0,0
;   overrideFirmwareConfiguration,1
;   firmwareTypeOverride,RepRap (Marlin/Repetier/Sprinter)
;   GPXconfigOverride,r2
;   baudRateOverride,250000
;   overridePrinterModels,1
;   printerModelsOverride
;   startingGcode,G28 ; home all axes
;   layerChangeGcode,
;   retractionGcode,
;   toolChangeGcode,
;   endingGcode,M104 S0 ; turn off extruder,M140 S0 ; turn off bed,G28 ; home axes,M84 ; disable motors
;   exportFileFormat,gcode
;   celebration,0
;   celebrationSong,Random Song
;   postProcessing,
;   defaultSpeed,3000
;   outlineUnderspeed,0.5
;   solidInfillUnderspeed,0.8
;   supportUnderspeed,0.8
;   rapidXYspeed,9000
;   rapidZspeed,1200
;   minBridgingArea,50
;   bridgingExtraInflation,0
;   bridgingExtrusionMultiplier,0.95
;   bridgingSpeedMultiplier,0.7
;   useFixedBridgingAngle,0
;   fixedBridgingAngle,0
;   applyBridgingToPerimeters,0
;   filamentDiameters,1.71|1.75|1.75|1.75|1.75|1.75
;   filamentPricesPerKg,46|46|46|46|46|46
;   filamentDensities,1.25|1.25|1.25|1.25|1.25|1.25
;   useMinPrintHeight,0
;   minPrintHeight,0
;   useMaxPrintHeight,0
;   maxPrintHeight,0
;   useDiaphragm,0
;   diaphragmLayerInterval,20
;   robustSlicing,1
;   mergeAllIntoSolid,0
;   onlyRetractWhenCrossingOutline,1
;   retractBetweenLayers,1
;   useRetractionMinTravel,0
;   retractionMinTravel,3
;   retractWhileWiping,0
;   onlyWipeOutlines,1
;   avoidCrossingOutline,0
;   maxMovementDetourFactor,3
;   toolChangeRetractionDistance,12
;   toolChangeExtraRestartDistance,-0.5
;   toolChangeRetractionSpeed,600
;   externalThinWallType,0
;   internalThinWallType,2
;   thinWallAllowedOverlapPercentage,10
;   singleExtrusionMinLength,1
;   singleExtrusionMinPrintingWidthPercentage,50
;   singleExtrusionMaxPrintingWidthPercentage,200
;   singleExtrusionEndpointExtension,0.2
;   horizontalSizeCompensation,0
G90
M82
M106 S255
G4 P500
M106 S0
M140 S80
M190 S80
M104 S250 T0
M109 S250 T0
G28 ; home all axes
G92 E0
G1 E-5.0000 F3600
G1 Z0.280 F1200
; process Process1
; layer 1, Z = 0.180
T0
; tool H0.200 W0.480
; skirt
G1 X35.111 Y-2.990 F9000
G1 Z0.180 F1200
G1 E0.0000 F1080
G92 E0
G1 X35.577 Y-2.324 E0.0323 F1500
G1 X35.643 Y-2.113 E0.0411
G1 X35.643 Y2.113 E0.2089
G1 X35.577 Y2.324 E0.2177
G1 X35.111 Y2.990 E0.2500
G1 X35.457 Y3.726 E0.2823
G1 X35.487 Y3.946 E0.2910
G1 X34.773 Y8.110 E0.4588
G1 X34.672 Y8.307 E0.4676
G1 X34.100 Y8.885 E0.4999
G1 X34.317 Y9.669 E0.5322
G1 X34.309 Y9.890 E0.5410
G1 X32.902 Y13.874 E0.7088
G1 X32.769 Y14.051 E0.7176
G1 X32.108 Y14.525 E0.7499
G1 X32.189 Y15.334 E0.7822
G1 X32.144 Y15.550 E0.7910
G1 X30.084 Y19.239 E0.9587
G1 X29.923 Y19.391 E0.9675
G1 X29.191 Y19.746 E0.9998
G1 X29.135 Y20.556 E1.0321
G1 X29.054 Y20.762 E1.0409
G1 X26.399 Y24.051 E1.2087
G1 X26.215 Y24.173 E1.2175
G1 X25.434 Y24.399 E1.2498
G1 X25.242 Y25.188 E1.2820
G1 X25.127 Y25.378 E1.2908
G1 X21.954 Y28.170 E1.4587
G1 X21.752 Y28.260 E1.4675
G1 X20.944 Y28.351 E1.4997
G1 X20.621 Y29.096 E1.5320
G1 X20.476 Y29.263 E1.5408
G1 X16.877 Y31.479 E1.7086
G1 X16.663 Y31.534 E1.7174
G1 X15.851 Y31.487 E1.7497
G1 X15.407 Y32.167 E1.7820
G1 X15.236 Y32.307 E1.7907
G1 X11.314 Y33.883 E1.9586
G1 X11.094 Y33.900 E1.9674
G1 X10.302 Y33.717 E1.9997
G1 X9.749 Y34.312 E2.0319
G1 X9.557 Y34.421 E2.0407
G1 X5.425 Y35.312 E2.2085
G1 X5.205 Y35.291 E2.2173
G1 X4.455 Y34.977 E2.2496
G1 X3.810 Y35.470 E2.2819
G1 X3.602 Y35.545 E2.2907
G1 X-0.621 Y35.725 E2.4585
G1 X-0.835 Y35.667 E2.4673
G1 X-1.520 Y35.231 E2.4996
G1 X-2.240 Y35.608 E2.5318
G1 X-2.458 Y35.647 E2.5406
G1 X-6.650 Y35.110 E2.7085
G1 X-6.851 Y35.017 E2.7172
G1 X-7.453 Y34.471 E2.7495
G1 X-8.226 Y34.721 E2.7818
G1 X-8.447 Y34.723 E2.7906
G1 X-12.488 Y33.485 E2.9584
G1 X-12.671 Y33.360 E2.9672
G1 X-13.172 Y32.720 E2.9995
G1 X-13.976 Y32.836 E3.0317
G1 X-14.194 Y32.800 E3.0405
G1 X-17.968 Y30.897 E3.2084
G1 X-18.127 Y30.743 E3.2172
G1 X-18.512 Y30.027 E3.2495
G1 X-19.325 Y30.005 E3.2818
G1 X-19.535 Y29.933 E3.2905
G1 X-22.932 Y27.420 E3.4583
G1 X-23.062 Y27.241 E3.4671
G1 X-23.321 Y26.470 E3.4994
G1 X-24.119 Y26.311 E3.5317
G1 X-24.313 Y26.205 E3.5405
G1 X-27.236 Y23.154 E3.7083
G1 X-27.334 Y22.956 E3.7171
G1 X-27.459 Y22.152 E3.7494
G1 X-28.219 Y21.861 E3.7817
G1 X-28.392 Y21.723 E3.7905
G1 X-30.758 Y18.222 E3.9583
G1 X-30.821 Y18.010 E3.9670
G1 X-30.809 Y17.197 E3.9993
G1 X-31.508 Y16.781 E4.0316
G1 X-31.655 Y16.616 E4.0404
G1 X-33.395 Y12.766 E4.2082
G1 X-33.422 Y12.547 E4.2170
G1 X-33.272 Y11.747 E4.2493
G1 X-33.891 Y11.219 E4.2816
G1 X-34.008 Y11.032 E4.2904
G1 X-35.073 Y6.943 E4.4582
G1 X-35.062 Y6.722 E4.4670
G1 X-34.779 Y5.959 E4.4992
G1 X-35.300 Y5.334 E4.5315
G1 X-35.384 Y5.130 E4.5403
G1 X-35.742 Y0.920 E4.7081
G1 X-35.694 Y0.704 E4.7169
G1 X-35.286 Y0.000 E4.7492
G1 X-35.694 Y-0.704 E4.7815
G1 X-35.742 Y-0.920 E4.7903
G1 X-35.384 Y-5.130 E4.9581
G1 X-35.300 Y-5.334 E4.9669
G1 X-34.779 Y-5.959 E4.9992
G1 X-35.062 Y-6.722 E5.0315
G1 X-35.073 Y-6.943 E5.0402
G1 X-34.008 Y-11.032 E5.2080
G1 X-33.891 Y-11.219 E5.2168
G1 X-33.272 Y-11.747 E5.2491
G1 X-33.422 Y-12.547 E5.2814
G1 X-33.395 Y-12.766 E5.2902
G1 X-31.655 Y-16.617 E5.4580
G1 X-31.508 Y-16.781 E5.4668
G1 X-30.809 Y-17.197 E5.4991
G1 X-30.822 Y-18.009 E5.5313
G1 X-30.759 Y-18.221 E5.5401
G1 X-28.392 Y-21.723 E5.7080
G1 X-28.219 Y-21.861 E5.7167
G1 X-27.460 Y-22.152 E5.7490
G1 X-27.335 Y-22.955 E5.7813
G1 X-27.237 Y-23.153 E5.7901
G1 X-24.313 Y-26.205 E5.9579
G1 X-24.119 Y-26.311 E5.9667
G1 X-23.321 Y-26.470 E5.9990
G1 X-23.063 Y-27.240 E6.0312
G1 X-22.933 Y-27.419 E6.0400
G1 X-19.535 Y-29.933 E6.2079
G1 X-19.325 Y-30.005 E6.2167
G1 X-18.513 Y-30.027 E6.2489
G1 X-18.128 Y-30.742 E6.2812
G1 X-17.969 Y-30.897 E6.2900
G1 X-14.195 Y-32.799 E6.4578
G1 X-13.977 Y-32.835 E6.4666
G1 X-13.172 Y-32.719 E6.4989
G1 X-12.672 Y-33.359 E6.5312
G1 X-12.490 Y-33.485 E6.5400
G1 X-8.448 Y-34.723 E6.7078
G1 X-8.227 Y-34.721 E6.7166
G1 X-7.454 Y-34.471 E6.7489
G1 X-6.852 Y-35.017 E6.7811
G1 X-6.651 Y-35.110 E6.7899
G1 X-2.459 Y-35.647 E6.9578
G1 X-2.241 Y-35.608 E6.9665
G1 X-1.521 Y-35.231 E6.9988
G1 X-0.836 Y-35.667 E7.0311
G1 X-0.622 Y-35.725 E7.0399
G1 X3.600 Y-35.546 E7.2077
G1 X3.808 Y-35.470 E7.2165
G1 X4.454 Y-34.977 E7.2488
G1 X5.203 Y-35.292 E7.2810
G1 X5.424 Y-35.312 E7.2898
G1 X9.555 Y-34.422 E7.4577
G1 X9.748 Y-34.312 E7.4665
G1 X10.301 Y-33.717 E7.4987
G1 X11.092 Y-33.901 E7.5310
G1 X11.313 Y-33.883 E7.5398
G1 X15.235 Y-32.308 E7.7076
G1 X15.406 Y-32.167 E7.7164
G1 X15.851 Y-31.487 E7.7487
G1 X16.663 Y-31.534 E7.7810
G1 X16.877 Y-31.479 E7.7898
G1 X20.475 Y-29.264 E7.9576
G1 X20.620 Y-29.097 E7.9664
G1 X20.944 Y-28.351 E7.9987
G1 X21.752 Y-28.260 E8.0310
G1 X21.954 Y-28.170 E8.0398
G1 X25.126 Y-25.379 E8.2075
G1 X25.241 Y-25.189 E8.2163
G1 X25.434 Y-24.399 E8.2486
G1 X26.215 Y-24.173 E8.2809
G1 X26.399 Y-24.051 E8.2897
G1 X29.053 Y-20.763 E8.4575
G1 X29.134 Y-20.557 E8.4663
G1 X29.191 Y-19.746 E8.4986
G1 X29.923 Y-19.391 E8.5309
G1 X30.084 Y-19.239 E8.5397
G1 X32.144 Y-15.550 E8.7075
G1 X32.189 Y-15.334 E8.7162
G1 X32.108 Y-14.525 E8.7485
G1 X32.769 Y-14.051 E8.7808
G1 X32.902 Y-13.874 E8.7896
G1 X34.309 Y-9.890 E8.9574
G1 X34.317 Y-9.669 E8.9662
G1 X34.100 Y-8.885 E8.9985
G1 X34.672 Y-8.307 E9.0308
G1 X34.773 Y-8.110 E9.0396
G1 X35.487 Y-3.946 E9.2074
G1 X35.457 Y-3.726 E9.2162
G1 X35.111 Y-2.990 E9.2485
G1 X34.558 Y-2.943 F9000
G92 E0
G1 X35.141 Y-2.109 E0.0404 F1500
G1 X35.163 Y-2.039 E0.0433
G1 X35.163 Y2.039 E0.2053
G1 X35.141 Y2.109 E0.2082
G1 X34.558 Y2.943 E0.2486
G1 X34.992 Y3.864 E0.2890
G1 X35.002 Y3.937 E0.2919
G1 X34.312 Y7.956 E0.4539
G1 X34.279 Y8.022 E0.4568
G1 X33.563 Y8.746 E0.4972
G1 X33.835 Y9.726 E0.5376
G1 X33.832 Y9.800 E0.5405
G1 X32.474 Y13.645 E0.7025
G1 X32.430 Y13.704 E0.7054
G1 X31.602 Y14.296 E0.7458
G1 X31.704 Y15.308 E0.7862
G1 X31.689 Y15.381 E0.7891
G1 X29.700 Y18.941 E0.9511
G1 X29.647 Y18.991 E0.9540
G1 X28.732 Y19.435 E0.9944
G1 X28.661 Y20.449 E1.0348
G1 X28.634 Y20.518 E1.0377
G1 X26.072 Y23.692 E1.1997
G1 X26.010 Y23.733 E1.2026
G1 X25.033 Y24.015 E1.2430
G1 X24.793 Y25.003 E1.2834
G1 X24.755 Y25.066 E1.2863
G1 X21.693 Y27.761 E1.4483
G1 X21.625 Y27.791 E1.4512
G1 X20.614 Y27.905 E1.4916
G1 X20.210 Y28.838 E1.5320
G1 X20.162 Y28.893 E1.5349
G1 X16.689 Y31.032 E1.6969
G1 X16.617 Y31.050 E1.6998
G1 X15.601 Y30.991 E1.7402
G1 X15.046 Y31.842 E1.7806
G1 X14.989 Y31.889 E1.7835
G1 X11.204 Y33.410 E1.9455
G1 X11.130 Y33.416 E1.9484
G1 X10.139 Y33.186 E1.9888
G1 X9.447 Y33.931 E2.0292
G1 X9.383 Y33.968 E2.0321
G1 X5.396 Y34.827 E2.1941
G1 X5.322 Y34.820 E2.1970
G1 X4.384 Y34.427 E2.2374
G1 X3.577 Y35.044 E2.2778
G1 X3.507 Y35.069 E2.2807
G1 X-0.568 Y35.242 E2.4427
G1 X-0.639 Y35.223 E2.4457
G1 X-1.497 Y34.676 E2.4861
G1 X-2.397 Y35.148 E2.5264
G1 X-2.470 Y35.161 E2.5294
G1 X-6.516 Y34.643 E2.6913
G1 X-6.583 Y34.612 E2.6943
G1 X-7.336 Y33.929 E2.7347
G1 X-8.303 Y34.242 E2.7750
G1 X-8.377 Y34.242 E2.7780
G1 X-12.277 Y33.048 E2.9399
G1 X-12.338 Y33.006 E2.9429
G1 X-12.965 Y32.205 E2.9833
G1 X-13.971 Y32.350 E3.0236
G1 X-14.044 Y32.338 E3.0266
G1 X-17.686 Y30.502 E3.1886
G1 X-17.739 Y30.450 E3.1915
G1 X-18.222 Y29.555 E3.2319
G1 X-19.239 Y29.527 E3.2723
G1 X-19.308 Y29.503 E3.2752
G1 X-22.587 Y27.078 E3.4372
G1 X-22.630 Y27.018 E3.4401
G1 X-22.955 Y26.054 E3.4805
G1 X-23.952 Y25.855 E3.5209
G1 X-24.017 Y25.819 E3.5238
G1 X-26.839 Y22.875 E3.6858
G1 X-26.871 Y22.809 E3.6887
G1 X-27.028 Y21.804 E3.7291
G1 X-27.978 Y21.439 E3.7695
G1 X-28.036 Y21.393 E3.7724
G1 X-30.319 Y18.015 E3.9344
G1 X-30.340 Y17.944 E3.9373
G1 X-30.324 Y16.927 E3.9777
G1 X-31.199 Y16.407 E4.0181
G1 X-31.248 Y16.352 E4.0210
G1 X-32.928 Y12.636 E4.1830
G1 X-32.937 Y12.563 E4.1859
G1 X-32.749 Y11.562 E4.2263
G1 X-33.523 Y10.902 E4.2667
G1 X-33.562 Y10.840 E4.2696
G1 X-34.590 Y6.893 E4.4316
G1 X-34.586 Y6.820 E4.4345
G1 X-34.233 Y5.866 E4.4749
G1 X-34.884 Y5.084 E4.5153
G1 X-34.912 Y5.016 E4.5182
G1 X-35.258 Y0.952 E4.6802
G1 X-35.242 Y0.881 E4.6831
G1 X-34.732 Y0.000 E4.7235
G1 X-35.242 Y-0.881 E4.7639
G1 X-35.258 Y-0.952 E4.7668
G1 X-34.912 Y-5.016 E4.9288
G1 X-34.884 Y-5.084 E4.9317
G1 X-34.233 Y-5.866 E4.9721
G1 X-34.586 Y-6.820 E5.0125
G1 X-34.590 Y-6.893 E5.0154
G1 X-33.562 Y-10.840 E5.1774
G1 X-33.523 Y-10.902 E5.1803
G1 X-32.749 Y-11.562 E5.2207
G1 X-32.937 Y-12.563 E5.2611
G1 X-32.928 Y-12.636 E5.2640
G1 X-31.248 Y-16.352 E5.4260
G1 X-31.199 Y-16.407 E5.4289
G1 X-30.325 Y-16.927 E5.4693
G1 X-30.341 Y-17.943 E5.5097
G1 X-30.320 Y-18.014 E5.5126
G1 X-28.035 Y-21.393 E5.6746
G1 X-27.978 Y-21.439 E5.6775
G1 X-27.028 Y-21.804 E5.7179
G1 X-26.872 Y-22.808 E5.7583
G1 X-26.840 Y-22.875 E5.7612
G1 X-24.017 Y-25.819 E5.9232
G1 X-23.952 Y-25.855 E5.9261
G1 X-22.955 Y-26.054 E5.9665
G1 X-22.631 Y-27.018 E6.0069
G1 X-22.588 Y-27.077 E6.0098
G1 X-19.308 Y-29.503 E6.1718
G1 X-19.239 Y-29.527 E6.1747
G1 X-18.222 Y-29.555 E6.2151
G1 X-17.740 Y-30.450 E6.2555
G1 X-17.687 Y-30.501 E6.2584
G1 X-14.045 Y-32.338 E6.4204
G1 X-13.972 Y-32.349 E6.4233
G1 X-12.965 Y-32.205 E6.4637
G1 X-12.339 Y-33.006 E6.5041
G1 X-12.279 Y-33.048 E6.5070
G1 X-8.378 Y-34.242 E6.6690
G1 X-8.305 Y-34.241 E6.6720
G1 X-7.337 Y-33.929 E6.7124
G1 X-6.584 Y-34.612 E6.7527
G1 X-6.517 Y-34.643 E6.7557
G1 X-2.471 Y-35.161 E6.9176
G1 X-2.399 Y-35.148 E6.9206
G1 X-1.497 Y-34.676 E6.9610
G1 X-0.640 Y-35.223 E7.0013
G1 X-0.569 Y-35.242 E7.0043
G1 X3.506 Y-35.069 E7.1662
G1 X3.576 Y-35.044 E7.1692
G1 X4.384 Y-34.427 E7.2096
G1 X5.321 Y-34.821 E7.2499
G1 X5.395 Y-34.827 E7.2529
G1 X9.382 Y-33.968 E7.4149
G1 X9.446 Y-33.932 E7.4178
G1 X10.139 Y-33.186 E7.4582
G1 X11.129 Y-33.416 E7.4985
G1 X11.203 Y-33.411 E7.5015
G1 X14.988 Y-31.890 E7.6635
G1 X15.045 Y-31.843 E7.6664
G1 X15.601 Y-30.991 E7.7068
G1 X16.617 Y-31.050 E7.7472
G1 X16.689 Y-31.032 E7.7501
G1 X20.161 Y-28.894 E7.9121
G1 X20.209 Y-28.838 E7.9150
G1 X20.614 Y-27.905 E7.9554
G1 X21.625 Y-27.791 E7.9958
G1 X21.693 Y-27.761 E7.9987
G1 X24.754 Y-25.067 E8.1607
G1 X24.792 Y-25.004 E8.1636
G1 X25.033 Y-24.016 E8.2040
G1 X26.010 Y-23.733 E8.2444
G1 X26.072 Y-23.692 E8.2473
G1 X28.634 Y-20.519 E8.4093
G1 X28.661 Y-20.450 E8.4122
G1 X28.731 Y-19.435 E8.4526
G1 X29.647 Y-18.991 E8.4930
G1 X29.700 Y-18.941 E8.4959
G1 X31.689 Y-15.381 E8.6579
G1 X31.704 Y-15.308 E8.6608
G1 X31.602 Y-14.296 E8.7012
G1 X32.430 Y-13.704 E8.7416
G1 X32.474 Y-13.645 E8.7445
G1 X33.832 Y-9.800 E8.9065
G1 X33.835 Y-9.726 E8.9094
G1 X33.563 Y-8.746 E8.9498
G1 X34.279 Y-8.022 E8.9902
G1 X34.312 Y-7.956 E8.9931
G1 X35.002 Y-3.937 E9.1551
